X:1
T:The Gay Goshawk
M:3/4
L:1/8
K:C
 d| BA/2-G/2 E2 D2| G/2 B3/2 d3 G| A2 G2 GG| A4 G2| G/2G/2 G A2 B2|\
 fe d4| GA/2-B/2 d d3| ED D3||
